T: Ashmolean House
M: 4/4
L: 1/8
K: Dmaj
|:B|AF~F2 EDB,A,|D2 (3FED FA~A2|defd e2dB|AFDE FEEB|AF~F2 EDB,A,|D2 (3FED FAAB|ABde dBAF|A,CEG FDD:||:A|defg ~a3b|afdf eBBA|defg ~a3b|afdf e3g|fd~d2 Ad~d2|ed (3Bcd effe|dBAF A2AF|A,CEG FDD:|
